X:325
T:Emma's Waltz & Counter
C:Tune: Brian Stone.  Counter-melody: Colin Hume
L:1/8
M:3/4
R:Waltz
S:Colin Hume's website,  colinhume.com  - chords can also be printed below the stave.
Q:1/4=112
%%MIDI beat 100 95 80
%%MIDI chordname 7sus 0 5 7 10
%%staffnonote 2
K:D
P:A
V:1 name=Tune
%%MIDI program 68       % Oboe
%%MIDI chordprog 45
%%MIDI bassprog 45
%%MIDI control 10 50    Mostly Right speaker
|: DE | "D"F3A cd | "G"B4AG | "D/F#"FGA2GF | "A"E4DE | "Bm"F2A,2 DF |\
[1"A/C#"E6 | "G"D3E FG | "A"E4 :|2 "A"E4 DC | "G"D3F Ac | "D"d3 ||
V:2 name=Counter
%%MIDI program 41     Viola
%%MIDI control 10 80  Mostly Left speaker
|: z2 | D6 | G4FE | D4B,2 | C4B,C | D2F2B2 |\
[1 cBA2Bc | dcB2B,2 | C4 :|2 cBA4 | dc B2 AG | F3 ||
P:B
V:1
|: A de | "D"f2fe da | "A"e4 fe | "Bm"d3c de | "F#m"c2A4 |\
"G"Bd3d2 | "D"Ad3 d2- | "Em"d3c df | "A"e4 fg |
"Bm"f2a2gf | "A"e4 fe | "G"d3c de | "F#m"c4 A2 |\
"Em"B2d2ga | "A"e4 fe | "G"d4 d/e/d/c/ | "D"d3 :|
V:2
|: zA2 | dc dA Fd | cB cA Ec | BAB2FG | AG FE DC |\
B,3C DE | F3G AF | G2B2G2 | A6 |
B2F2B2 | cBA4 | B2G2B2 | AGF2 C2 |\
B,4ED | C4 EF | G2F2E2 | D3 :|

